Hatter-kde/actions/24/im-twitter.svg

<svg xmlns="http://www.w3.org/2000/svg" viewBox="0 0 24 24">
  <defs id="defs3051">
    <style type="text/css" id="current-color-scheme">
      .ColorScheme-Text {
        color:#363636;
      }
      </style>
  </defs>
 <path style="fill:currentColor;fill-opacity:1;stroke:none" 
     d="M 15.078125 5.5 C 13.265325 5.5 11.794922 6.96874 11.794922 8.78125 C 11.794922 9.03843 11.823006 9.2891269 11.878906 9.5292969 C 9.1508706 9.3924669 6.7322015 8.0870925 5.1132812 6.1015625 C 4.8306713 6.5862225 4.6699219 7.14857 4.6699219 7.75 C 4.6699219 8.88867 5.2480864 9.8939017 6.1289062 10.482422 C 5.5908064 10.465722 5.0851281 10.318036 4.6425781 10.072266 C 4.6422781 10.086266 4.6425781 10.099281 4.6425781 10.113281 C 4.6425781 11.70342 5.7738206 13.028468 7.2753906 13.330078 C 7.0000106 13.405178 6.7095563 13.445313 6.4101562 13.445312 C 6.1986662 13.445312 5.9934186 13.424719 5.7929688 13.386719 C 6.2107086 14.690539 7.422955 15.639646 8.859375 15.666016 C 7.735955 16.546356 6.3211331 17.070314 4.7832031 17.070312 C 4.5182331 17.070306 4.25675 17.055691 4 17.025391 C 5.45265 17.956581 7.17753 18.5 9.03125 18.5 C 15.06897 18.5 18.371094 13.499189 18.371094 9.1621094 C 18.371094 9.0198594 18.366328 8.8790414 18.361328 8.7382812 C 19.002772 8.2755412 19.55995 7.6972525 20 7.0390625 C 19.41141 7.3000625 18.779134 7.4753275 18.115234 7.5546875 C 18.792844 7.1485175 19.311541 6.5066344 19.556641 5.7402344 C 18.922361 6.1163744 18.220386 6.3899994 17.472656 6.5371094 C 16.873966 5.8992994 16.022235 5.5 15.078125 5.5 z "
     class="ColorScheme-Text"
     />
</svg>

<?xml version="1.0" encoding="UTF-8"?>
<svg viewBox="0 0 24 24" xmlns="http://www.w3.org/2000/svg">
 <defs id="defs3051">
  <style id="current-color-scheme" type="text/css">.ColorScheme-Text {
        color:#363636;
      }</style>
 </defs>
 <path class="ColorScheme-Text" d="m15.078 5.5c-1.8128 0-3.2832 1.4687-3.2832 3.2812 0 0.25718 0.028084 0.50788 0.083984 0.74805-2.728-0.13683-5.1467-1.4422-6.7656-3.4277-0.28261 0.48466-0.44336 1.047-0.44336 1.6484 0 1.1387 0.57816 2.1439 1.459 2.7324-0.5381-0.0167-1.0438-0.16439-1.4863-0.41016-3e-4 0.014 0 0.027015 0 0.041015 0 1.5901 1.1312 2.9152 2.6328 3.2168-0.27538 0.0751-0.56583 0.11524-0.86523 0.11523-0.21149 0-0.41674-0.020593-0.61719-0.058593 0.41774 1.3038 1.63 2.2529 3.0664 2.2793-1.1234 0.88034-2.5382 1.4043-4.0762 1.4043-0.26497-6e-6 -0.52645-0.014621-0.7832-0.044921 1.4526 0.93119 3.1775 1.4746 5.0312 1.4746 6.0377 0 9.3398-5.0008 9.3398-9.3379 0-0.14225-0.004766-0.28307-0.009766-0.42383 0.64144-0.46274 1.1986-1.041 1.6387-1.6992-0.58859 0.261-1.2209 0.43626-1.8848 0.51562 0.67761-0.40617 1.1963-1.0481 1.4414-1.8145-0.63428 0.37614-1.3363 0.64976-2.084 0.79688-0.59869-0.63781-1.4504-1.0371-2.3945-1.0371z" fill="currentColor"/>
</svg>
